Adwaita++/apps/scalable/microsoft.svg

<svg height="128" width="128" xmlns="http://www.w3.org/2000/svg" xmlns:xlink="http://www.w3.org/1999/xlink">
  <linearGradient id="e" gradientTransform="matrix(1.0015 0 0 .99993 72.09 56.015)" gradientUnits="userSpaceOnUse" x1="43.844" x2="-60" y1="234" y2="234">
    <stop offset="0" stop-color="#d5d3cf"/>
    <stop offset=".038" stop-color="#e3e2df"/>
    <stop offset=".077" stop-color="#c0bfbc"/>
    <stop offset=".923" stop-color="#c0bfbc"/>
    <stop offset=".962" stop-color="#e3e2df"/>
    <stop offset="1" stop-color="#d5d3cf"/>
  </linearGradient>
  <g transform="translate(0 -172)">
    <rect fill="url(#e)" height="48" rx="8" width="104" x="12" y="240"/>
    <g transform="translate(0 172)">
      <path d="m20 10c-1.108 0-2.161391.223203-3.119141.626953s-1.819968.987938-2.542968 1.710938-1.307188 1.585218-1.710938 2.542968-.626953 2.011141-.626953 3.119141v42h52v-50z" fill="#eb572a"/>
      <path d="m116 60v-42c0-1.108-.2232-2.161391-.62695-3.119141s-.98794-1.819968-1.71094-2.542968-1.58522-1.307188-2.54297-1.710938-2.01114-.626953-3.11914-.626953h-44v50z" fill="#79a61c"/>
      <path d="m12 60v42c0 1.108.223203 2.16139.626953 3.11914s.987938 1.81997 1.710938 2.54297 1.585218 1.30719 2.542968 1.71094 2.011141.62695 3.119141.62695h44v-50z" fill="#459ee9"/>
      <path d="m64 110h44c1.108 0 2.16139-.2232 3.11914-.62695s1.81997-.98794 2.54297-1.71094 1.30719-1.58522 1.71094-2.54297.62695-2.01114.62695-3.11914v-42h-52z" fill="#ffba08"/>
    </g>
  </g>
</svg>

<svg xmlns="http://www.w3.org/2000/svg" xmlns:xlink="http://www.w3.org/1999/xlink" width="128" height="128" version="1.0">
 <defs>
  <linearGradient id="a">
   <stop id="stop2" offset="0" stop-color="#68676b"/>
   <stop id="stop4" offset=".8" stop-color="#424048"/>
   <stop id="stop6" offset="1" stop-color="#241f31"/>
  </linearGradient>
  <radialGradient id="d" cx="279.422" cy="446.483" r="224" fx="279.422" fy="446.483" gradientTransform="matrix(1.34416 .0006 -.00062 1.38763 -121.22 -718.103)" gradientUnits="userSpaceOnUse" xlink:href="#a"/>
  <linearGradient id="e" x1="43.844" x2="-60" y1="234" y2="234" gradientTransform="matrix(1.0015 0 0 .99993 72.09 56.015)" gradientUnits="userSpaceOnUse" xlink:href="#b"/>
  <linearGradient id="b">
   <stop id="stop11" offset="0" stop-color="#d5d3cf"/>
   <stop id="stop13" offset=".038" stop-color="#e3e2df"/>
   <stop id="stop15" offset=".077" stop-color="#c0bfbc"/>
   <stop id="stop17" offset=".923" stop-color="#c0bfbc"/>
   <stop id="stop19" offset=".962" stop-color="#e3e2df"/>
   <stop id="stop21" offset="1" stop-color="#d5d3cf"/>
  </linearGradient>
  <filter id="filter906" width="1.046" height="1.05" x="-.02" y="-.03" style="color-interpolation-filters:sRGB">
   <feGaussianBlur id="feGaussianBlur922" stdDeviation="2.32"/>
  </filter>
  <linearGradient id="linearGradient878" x1="32" x2="272" y1="156" y2="156" gradientTransform="matrix(0.23900574,0.41397008,-0.41397008,0.23900574,-19.523641,133.24274)" gradientUnits="userSpaceOnUse">
   <stop style="stop-color:#2f5fdd" id="stop917" offset="0"/>
   <stop style="stop-color:#5884f4" id="stop919" offset="1"/>
  </linearGradient>
  <linearGradient id="linearGradient1108" x1="296" x2="296" y1="-212" y2="236" gradientUnits="userSpaceOnUse">
   <stop style="stop-color:#ffffff" id="stop905" offset="0"/>
   <stop style="stop-color:#ffffff;stop-opacity:.09803922" id="stop907" offset=".125"/>
   <stop style="stop-color:#000000;stop-opacity:.09803922" id="stop909" offset=".925"/>
   <stop style="stop-color:#000000;stop-opacity:.49803922" id="stop911" offset="1"/>
  </linearGradient>
  <clipPath id="clipPath1082-3-3">
   <path style="fill:#8c59d9" d="M 361.9375,-212 C 507.2348,-212 528,-191.28677 528,-46.125 V 70.125 C 528,215.28618 507.2348,236 361.9375,236 H 214.0625 C 68.7652,236 48,215.28618 48,70.125 V -46.125 C 48,-191.28677 68.7652,-212 214.0625,-212 Z"/>
  </clipPath>
  <filter id="filter4569" width="1.023" height="1.025" x="-.01" y="-.01" style="color-interpolation-filters:sRGB">
   <feGaussianBlur id="feGaussianBlur2442" stdDeviation="1.16"/>
  </filter>
  <filter id="filter958" width="1.046" height="1.05" x="-.02" y="-.03" style="color-interpolation-filters:sRGB">
   <feGaussianBlur id="feGaussianBlur2439" stdDeviation="2.32"/>
  </filter>
  <linearGradient id="linearGradient1108-7" x1="296" x2="296" y1="-212" y2="236" gradientUnits="userSpaceOnUse">
   <stop style="stop-color:#ffffff" id="stop2427" offset="0"/>
   <stop style="stop-color:#ffffff;stop-opacity:.09803922" id="stop2429" offset=".125"/>
   <stop style="stop-color:#000000;stop-opacity:.09803922" id="stop2431" offset=".925"/>
   <stop style="stop-color:#000000;stop-opacity:.49803922" id="stop2433" offset="1"/>
  </linearGradient>
  <clipPath id="clipPath1082-3-69">
   <path style="fill:#8c59d9" d="M 361.9375,-212 C 507.2348,-212 528,-191.28677 528,-46.125 V 70.125 C 528,215.28618 507.2348,236 361.9375,236 H 214.0625 C 68.7652,236 48,215.28618 48,70.125 V -46.125 C 48,-191.28677 68.7652,-212 214.0625,-212 Z"/>
  </clipPath>
  <filter id="filter939" width="1.046" height="1.05" x="-.02" y="-.03" style="color-interpolation-filters:sRGB">
   <feGaussianBlur id="feGaussianBlur4784" stdDeviation="2.32"/>
  </filter>
  <filter id="filter4569-3" width="1.023" height="1.025" x="-.01" y="-.01" style="color-interpolation-filters:sRGB">
   <feGaussianBlur id="feGaussianBlur4781" stdDeviation="1.16"/>
  </filter>
  <linearGradient id="linearGradient1108-5" x1="296" x2="296" y1="-212" y2="236" gradientUnits="userSpaceOnUse">
   <stop style="stop-color:#ffffff" id="stop4769" offset="0"/>
   <stop style="stop-color:#ffffff;stop-opacity:.09803922" id="stop4771" offset=".125"/>
   <stop style="stop-color:#000000;stop-opacity:.09803922" id="stop4773" offset=".925"/>
   <stop style="stop-color:#000000;stop-opacity:.49803922" id="stop4775" offset="1"/>
  </linearGradient>
  <clipPath id="clipPath1082-3-361">
   <path style="fill:#8c59d9" d="M 361.9375,-212 C 507.2348,-212 528,-191.28677 528,-46.125 V 70.125 C 528,215.28618 507.2348,236 361.9375,236 H 214.0625 C 68.7652,236 48,215.28618 48,70.125 V -46.125 C 48,-191.28677 68.7652,-212 214.0625,-212 Z"/>
  </clipPath>
 </defs>
 <g transform="translate(0 -172)">
  <rect fill="url(#e)" width="104" height="48" x="12" y="240" rx="8" ry="8"/>
  <path style="fill:#eb572a" d="M 20 10 C 18.892 10 17.838609 10.223203 16.880859 10.626953 C 15.923109 11.030703 15.060891 11.614891 14.337891 12.337891 C 13.614891 13.060891 13.030703 13.923109 12.626953 14.880859 C 12.223203 15.838609 12 16.892 12 18 L 12 60 L 64 60 L 64 10 L 20 10 z" transform="translate(0,172)"/>
  <path style="fill:#79a61c" d="M 116 60 L 116 18 C 116 16.892 115.7768 15.838609 115.37305 14.880859 C 114.9693 13.923109 114.38511 13.060891 113.66211 12.337891 C 112.93911 11.614891 112.07689 11.030703 111.11914 10.626953 C 110.16139 10.223203 109.108 10 108 10 L 64 10 L 64 60 L 116 60 z" transform="translate(0,172)"/>
  <path style="fill:#459ee9" d="M 12 60 L 12 102 C 12 103.108 12.223203 104.16139 12.626953 105.11914 C 13.030703 106.07689 13.614891 106.93911 14.337891 107.66211 C 15.060891 108.38511 15.923109 108.9693 16.880859 109.37305 C 17.838609 109.7768 18.892 110 20 110 L 64 110 L 64 60 L 12 60 z" transform="translate(0,172)"/>
  <path style="fill:#ffba08" d="M 64 110 L 108 110 C 109.108 110 110.16139 109.7768 111.11914 109.37305 C 112.07689 108.9693 112.93911 108.38511 113.66211 107.66211 C 114.38511 106.93911 114.9693 106.07689 115.37305 105.11914 C 115.7768 104.16139 116 103.108 116 102 L 116 60 L 64 60 L 64 110 z" transform="translate(0,172)"/>
 </g>
</svg>
